X:1
T:Organdi
C:Gilles Chabenat
A:France
S:Transkription(S.W.) nach CD "Bleu nuit"
Z:abc transcription Simon Wascher
F:http://simonwascher.info/
M:4/4
L:1/8
K:D
F2 Ad c2 d2 | E3F G2 B2 | A2 d2 c2 A2 | B3A A2 G2 |
F2 Ad c2 d2 | E3F G2 B2 | A2 Bc d2 E2 | F4 D4 :|
d6 B2 | G4 B3d | c4 A3B | A6 Bd |
E3F G2 B2 | A2 AB/c/ d2 E2 |1 F6 G2 | A6 Bc :|\
                           [2 F4 A4 | D8 |]
